icons/bhi_card-expand.svg

<svg xmlns="http://www.w3.org/2000/svg" viewBox="0 0 512 512"><title>card-expand</title><path d="M185.27 286.84l39.89 39.89-127.32 127.27h101.57v56.59h-198.05v-198h56.64v101.57l127.27-127.32zm39.89-101.57l-39.89 39.89-127.27-127.32v101.57h-56.64v-198.05h198v56.64h-101.52l127.32 127.27zm101.57 101.57l127.27 127.32v-101.57h56.59v198h-198v-56.59h101.57l-127.32-127.27 39.89-39.89zm-39.89-101.57l127.32-127.27h-101.57v-56.64h198v198h-56.59v-101.52l-127.27 127.32-39.89-39.89z"/></svg>

<svg id="Layer_1" data-name="Layer 1" xmlns="http://www.w3.org/2000/svg" viewBox="0 0 512 512"><title>card-expand</title><path id="Shape" d="M185.27,286.84l39.89,39.89L97.84,454H199.41v56.59H1.36v-198H58V414.16L185.27,286.84h0Zm39.89-101.57-39.89,39.89L58,97.84V199.41H1.36V1.36h198V58H97.84L225.16,185.27h0ZM326.73,286.84L454,414.16V312.59h56.59v198h-198V454H414.16L286.84,326.73l39.89-39.89h0ZM286.84,185.27L414.16,58H312.59V1.36h198v198H454V97.84L326.73,225.16l-39.89-39.89h0Z"/></svg>
